Papirus/48x48/apps/converseen.svg

<?xml version="1.0" encoding="UTF-8" standalone="no"?>
<svg xmlns="http://www.w3.org/2000/svg" height="48" width="48" version="1">
 <ellipse rx="16" ry="15" cy="24" cx="25" fill="#ccc"/>
 <g fill="#9ccd44" transform="translate(-2)">
  <path transform="translate(2)" d="m22 4v3c-9.389 0-17 7.611-17 17 0 5.6431 2.75 10.644 6.9824 13.736 1.9893 1.2887 4.3615-3.0761 2.0391-4.7715-2.468-2.197-4.022-5.399-4.022-8.964 0-6.627 5.373-12 12-12v3l5.5-2.75 5.5-2.75-5.5-2.75-5.5-2.75z"/>
 </g>
 <g fill="#5db43e" transform="matrix(-1,0,0,-1,52,48)">
  <path d="m37.264 10.029c-1.7552-0.0047-3.3173 3.5224-1.2852 5.0059 2.467 2.198 4.021 5.4 4.021 8.965 0 6.627-5.373 12-12 12v-3l-5.5 2.75-5.5 2.75 5.5 2.75 5.5 2.75v-3c9.3888 0 17-7.6112 17-17 0-5.6431-2.75-10.644-6.9824-13.736-0.24866-0.16109-0.50316-0.23371-0.75391-0.23438z"/>
 </g>
 <g transform="translate(-2,1)">
  <path opacity=".2" d="m32 9-4.5 2.25-5.5 2.75v1l5.5-2.75 5.5-2.75-1-0.5zm-10 2c-6.627 0-12 5.373-12 12 0 0.163 0.021 0.321 0.027 0.482 0.273-6.385 5.52-11.482 11.973-11.482v-1zm13.064 1.553c-0.144 0.914 0.078 1.871 0.915 2.482 2.355 2.097 3.859 5.114 3.994 8.483 0.007-0.173 0.027-0.343 0.027-0.518 0-3.565-1.554-6.767-4.021-8.965-0.532-0.388-0.814-0.915-0.915-1.482zm9.916 10.818c-0.199 9.216-7.716 16.629-16.98 16.629v1c9.389 0 17-7.611 17-17 0-0.211-0.012-0.42-0.02-0.629zm-39.96 0.258c-0.0027 0.125-0.0195 0.246-0.0195 0.371 0 5.643 2.75 10.644 6.982 13.736 1.531 0.992 3.279-1.36 2.952-3.271-0.265 1.617-1.684 3.093-2.952 2.271-4.0732-2.976-6.7656-7.723-6.962-13.107zm12.98 14.371-1 0.5 5.5 2.75 5.5 2.75v-1l-5.5-2.75-4.5-2.25z" transform="translate(2)"/>
 </g>
 <g fill="#fff" transform="translate(-2)">
  <path opacity=".2" transform="translate(2)" d="m22 4v1l5.5 2.75 4.5 2.25 1-0.5-5.5-2.75-5.5-2.75zm0 3c-9.389 0-17 7.611-17 17 0 0.211 0.0119 0.42 0.0195 0.629 0.1994-9.216 7.7165-16.629 16.98-16.629v-1zm15.264 3.029c-1.297-0.003-2.485 1.92-2.2 3.524 0.207-1.307 1.167-2.526 2.2-2.524 0.25 0.001 0.505 0.074 0.754 0.235 4.074 2.976 6.766 7.723 6.962 13.107 0.003-0.125 0.02-0.246 0.02-0.371 0-5.643-2.75-10.644-6.982-13.736-0.249-0.161-0.504-0.234-0.754-0.235zm-27.237 14.453c-0.007 0.173-0.027 0.343-0.027 0.518 0 3.565 1.554 6.767 4.021 8.965 0.536 0.391 0.814 0.927 0.913 1.5 0.15-0.92-0.07-1.885-0.913-2.5-2.355-2.097-3.859-5.114-3.994-8.483zm29.946 0.036c-0.273 6.385-5.52 11.482-11.973 11.482v1c6.627 0 12-5.373 12-12 0-0.163-0.021-0.321-0.027-0.482zm-11.973 8.482l-5.5 2.75-5.5 2.75 1 0.5 4.5-2.25 5.5-2.75v-1z"/>
 </g>
</svg>

<?xml version="1.0" encoding="UTF-8" standalone="no"?>
<svg xmlns="http://www.w3.org/2000/svg" height="48" width="48" version="1">
 <ellipse style="fill:#cccccc" rx="16" ry="15" cy="24" cx="25"/>
 <path style="fill:#9ccd44" d="m 22,4 0,3 C 12.611,7 5,14.611 5,24 c 0,5.6431 2.75,10.644 6.9824,13.736 1.9893,1.2887 4.3615,-3.0761 2.0391,-4.7715 -2.468,-2.197 -4.022,-5.399 -4.022,-8.964 0,-6.627 5.373,-12 12,-12 l 0,3 5.5,-2.75 5.5,-2.75 -5.5,-2.75 -5.5,-2.75 z"/>
 <path style="fill:#5db43e" d="M 37.2642,10.0291 C 35.509,10.0244 33.9469,13.5515 35.979,15.035 38.446,17.233 40,20.435 40,24 40,30.627 34.627,36 28,36 l 0,-3 -5.5,2.75 -5.5,2.75 5.5,2.75 5.5,2.75 0,-3 c 9.3888,0 17,-7.6112 17,-17 0,-5.6431 -2.75,-10.644 -6.9824,-13.736 -0.24866,-0.16109 -0.50316,-0.23371 -0.75391,-0.23438 z"/>
 <path style="opacity:0.2" d="M 32,10 27.5,12.25 22,15 22,16 27.5,13.25 33,10.5 32,10 Z m -10,2 c -6.627,0 -12,5.373 -12,12 0,0.163 0.021,0.321 0.027,0.482 C 10.3,18.097 15.547,13 22,13 l 0,-1 z m 13.064,1.553 c -0.144,0.914 0.078,1.871 0.915,2.482 2.355,2.097 3.859,5.114 3.994,8.483 C 39.98,24.345 40,24.175 40,24 40,20.435 38.446,17.233 35.979,15.035 35.447,14.647 35.165,14.12 35.064,13.553 Z M 44.98,24.371 C 44.781,33.587 37.264,41 28,41 l 0,1 c 9.389,0 17,-7.611 17,-17 0,-0.211 -0.012,-0.42 -0.02,-0.629 z M 5.02,24.629 C 5.0173,24.754 5.0005,24.875 5.0005,25 c 0,5.643 2.75,10.644 6.982,13.736 1.531,0.992 3.279,-1.36 2.952,-3.271 -0.265,1.617 -1.684,3.093 -2.952,2.271 C 7.9093,34.76 5.2169,30.013 5.0205,24.629 Z M 18,39 17,39.5 22.5,42.25 28,45 28,44 22.5,41.25 18,39 Z"/>
 <path style="opacity:0.2;fill:#ffffff" d="M 22,4 22,5 27.5,7.75 32,10 33,9.5 27.5,6.75 22,4 Z m 0,3 C 12.611,7 5,14.611 5,24 5,24.211 5.0119,24.42 5.0195,24.629 5.2189,15.413 12.736,8 21.9995,8 l 0,-1 z m 15.264,3.029 c -1.297,-0.003 -2.485,1.92 -2.2,3.524 0.207,-1.307 1.167,-2.526 2.2,-2.524 0.25,10e-4 0.505,0.074 0.754,0.235 4.074,2.976 6.766,7.723 6.962,13.107 C 44.983,24.246 45,24.125 45,24 45,18.357 42.25,13.356 38.018,10.264 37.769,10.103 37.514,10.03 37.264,10.029 Z M 10.027,24.482 C 10.02,24.655 10,24.825 10,25 c 0,3.565 1.554,6.767 4.021,8.965 0.536,0.391 0.814,0.927 0.913,1.5 0.15,-0.92 -0.07,-1.885 -0.913,-2.5 -2.355,-2.097 -3.859,-5.114 -3.994,-8.483 z m 29.946,0.036 C 39.7,30.903 34.453,36 28,36 l 0,1 c 6.627,0 12,-5.373 12,-12 0,-0.163 -0.021,-0.321 -0.027,-0.482 z M 28,33 22.5,35.75 17,38.5 18,39 22.5,36.75 28,34 28,33 Z"/>
</svg>
